X:106
T:The Christ Child's Lullaby
S:Various
Z:Nigel Gatherer
M:3/4
L:1/4
K:C
G|G2 A|d d2|c d2|G2 c|B2 G|A d2|c d2|F2 F|
G2 A|d2 d|c d2|G2 G|G2 D|F G2|G3-|G z:|
<end>
<start>
